packages/assets/static/images/icons/pin.svg

<svg width="24" height="24" viewBox="0 0 24 24" xmlns="http://www.w3.org/2000/svg">
<path d="M22.0612 7.62846L16.3715 1.93971C16.2323 1.80038 16.0669 1.68986 15.8849 1.61446C15.7029 1.53905 15.5078 1.50024 15.3108 1.50024C15.1137 1.50024 14.9187 1.53905 14.7367 1.61446C14.5546 1.68986 14.3893 1.80038 14.25 1.93971L9.22217 6.98346C8.22279 6.67033 5.94092 6.29252 3.55967 8.21533C3.39554 8.34731 3.26104 8.51238 3.16492 8.69978C3.06881 8.88719 3.01324 9.09273 3.00184 9.30304C2.99043 9.51334 3.02343 9.72369 3.09871 9.9204C3.17398 10.1171 3.28984 10.2957 3.43873 10.4447L7.96873 14.9728L3.96936 18.9694C3.82862 19.1101 3.74956 19.301 3.74956 19.5C3.74956 19.699 3.82862 19.8899 3.96936 20.0306C4.11009 20.1714 4.30096 20.2504 4.49998 20.2504C4.699 20.2504 4.88987 20.1714 5.03061 20.0306L9.02717 16.0313L13.5544 20.5585C13.6935 20.6982 13.8589 20.8092 14.041 20.8849C14.2231 20.9607 14.4184 20.9998 14.6156 21C14.6512 21 14.6859 21 14.7215 21C14.9354 20.9852 15.1435 20.9245 15.3318 20.8221C15.5201 20.7197 15.6841 20.578 15.8128 20.4066C17.654 17.9597 17.4769 15.9703 17.0494 14.7816L22.0622 9.75002C22.2014 9.61066 22.3119 9.44524 22.3872 9.2632C22.4625 9.08115 22.5012 8.88605 22.5012 8.68904C22.5011 8.49203 22.4622 8.29697 22.3867 8.11499C22.3112 7.93301 22.2006 7.76769 22.0612 7.62846ZM21 8.68971L15.6309 14.0766C15.52 14.1879 15.4469 14.3312 15.4218 14.4863C15.3968 14.6414 15.4211 14.8004 15.4912 14.941C16.3781 16.7156 15.3225 18.5588 14.6156 19.4991L4.49998 9.38252C5.63248 8.46939 6.71623 8.22846 7.54498 8.22846C8.07085 8.22128 8.59238 8.32443 9.07592 8.53127C9.21699 8.60187 9.37673 8.62619 9.53241 8.60078C9.6881 8.57536 9.83181 8.5015 9.94311 8.38971L15.3112 3.00002L21 8.68877V8.68971Z"/>
</svg>

<svg viewBox="0 0 24 24" xmlns="http://www.w3.org/2000/svg" aria-hidden="true" fill="currentColor"><path d="m22.061 7.628-5.69-5.688a1.5 1.5 0 0 0-2.121 0L9.222 6.983c-1-.313-3.281-.69-5.662 1.232a1.5 1.5 0 0 0-.121 2.23l4.53 4.528-4 3.996a.75.75 0 1 0 1.062 1.062l3.996-4 4.527 4.528a1.5 1.5 0 0 0 1.062.441h.106a1.5 1.5 0 0 0 1.09-.593c1.842-2.447 1.665-4.437 1.237-5.625l5.013-5.032a1.5 1.5 0 0 0 0-2.122M21 8.69l-5.37 5.387a.75.75 0 0 0-.139.864c.887 1.775-.168 3.618-.875 4.558L4.5 9.383c1.132-.914 2.216-1.155 3.045-1.155a3.8 3.8 0 0 1 1.53.303.75.75 0 0 0 .868-.141L15.311 3z"/></svg>
